static/logos/companies.tools-wordmark-color.svg

<svg width="50" height="25" viewBox="0 0 50 25" fill="none" xmlns="http://www.w3.org/2000/svg">
<path d="M23.75 10.084C23.75 6.55429 23.75 4.78941 24.437 3.44123C25.0413 2.25534 26.0054 1.29118 27.1913 0.686934C28.5394 0 30.3042 0 33.834 0H38.666C42.1958 0 43.9606 0 45.3087 0.686934C46.4946 1.29118 47.4587 2.25534 48.063 3.44123C48.75 4.78941 48.75 6.55429 48.75 10.084V14.916C48.75 18.4457 48.75 20.2106 48.063 21.5588C47.4587 22.7447 46.4946 23.7087 45.3087 24.313C43.9606 25 42.1958 25 38.666 25H33.834C30.3042 25 28.5394 25 27.1913 24.313C26.0054 23.7087 25.0413 22.7447 24.437 21.5588C23.75 20.2106 23.75 18.4457 23.75 14.916V10.084Z" fill="white"/>
<path fill-rule="evenodd" clip-rule="evenodd" d="M38.666 1.47059H33.834C32.0448 1.47059 30.7915 1.47173 29.8144 1.55157C28.8542 1.63001 28.291 1.77701 27.859 1.99724C26.9498 2.4605 26.2104 3.19969 25.7472 4.10887C25.5269 4.54111 25.38 5.10429 25.3017 6.06429C25.2217 7.04149 25.2205 8.29491 25.2205 10.084V14.916C25.2205 16.7051 25.2217 17.9585 25.3017 18.9357C25.38 19.8957 25.5269 20.4589 25.7472 20.8911C26.2104 21.8003 26.9498 22.5395 27.859 23.0028C28.291 23.223 28.8542 23.37 29.8144 23.4484C30.7915 23.5283 32.0448 23.5294 33.834 23.5294H38.666C40.4552 23.5294 41.7085 23.5283 42.6856 23.4484C43.6458 23.37 44.209 23.223 44.641 23.0028C45.5502 22.5395 46.2894 21.8003 46.7528 20.8911C46.9729 20.4589 47.12 19.8957 47.1983 18.9357C47.2783 17.9585 47.2795 16.7051 47.2795 14.916V10.084C47.2795 8.29491 47.2783 7.04149 47.1983 6.06429C47.12 5.10429 46.9729 4.54111 46.7528 4.10887C46.2894 3.19969 45.5502 2.4605 44.641 1.99724C44.209 1.77701 43.6458 1.63001 42.6856 1.55157C41.7085 1.47173 40.4552 1.47059 38.666 1.47059ZM24.437 3.44123C23.75 4.78941 23.75 6.55429 23.75 10.084V14.916C23.75 18.4457 23.75 20.2106 24.437 21.5588C25.0413 22.7447 26.0054 23.7087 27.1913 24.313C28.5394 25 30.3042 25 33.834 25H38.666C42.1958 25 43.9606 25 45.3087 24.313C46.4946 23.7087 47.4587 22.7447 48.063 21.5588C48.75 20.2106 48.75 18.4457 48.75 14.916V10.084C48.75 6.55429 48.75 4.78941 48.063 3.44123C47.4587 2.25534 46.4946 1.29118 45.3087 0.686934C43.9606 0 42.1958 0 38.666 0H33.834C30.3042 0 28.5394 0 27.1913 0.686934C26.0054 1.29118 25.0413 2.25534 24.437 3.44123Z" fill="black"/>
<path d="M38.0587 22.0326C39.0542 22.0326 39.6398 21.8869 40.1377 21.7121V19.6728C39.6106 19.8767 39.0249 19.9932 38.2636 19.9932C37.0339 19.9932 36.3606 19.2649 36.3606 17.7791V8.6312H39.9327V6.59186H36.3606V3.125H33.9304V6.59186H31.7344V8.6312H33.9304V18.0121C33.9304 20.4011 35.2771 22.0326 38.0587 22.0326Z" fill="black"/>
<path fill-rule="evenodd" clip-rule="evenodd" d="M25 12.5C25 19.4036 19.4036 25 12.5 25C5.59644 25 0 19.4036 0 12.5C0 5.59644 5.59644 0 12.5 0C19.4036 0 25 5.59644 25 12.5ZM20.7983 15.7983C20.1014 20.4202 16.9232 22.6891 12.4627 22.6891C6.69182 22.6891 3.15125 18.7115 3.15125 12.549V12.3249C3.15125 6.38656 7.11 2.10083 12.5184 2.10083C16.6723 2.10083 20.185 4.31373 20.6032 8.65545H18.2056C17.7038 5.60224 15.9475 4.03361 12.5463 4.03361C8.42028 4.03361 5.66033 7.25488 5.66033 12.2969V12.521C5.66033 17.619 8.22514 20.7003 12.5184 20.7003C15.7802 20.7003 18.0383 19.0476 18.5402 15.7983H20.7983Z" fill="black"/>
</svg>

<svg xmlns="http://www.w3.org/2000/svg" width="128" height="64" fill="none" viewBox="0 0 50 25"><path fill="#fff" d="M23.75 10.084c0-3.53 0-5.295.687-6.643A6.303 6.303 0 0 1 27.191.687C28.54 0 30.304 0 33.834 0h4.832c3.53 0 5.295 0 6.643.687a6.303 6.303 0 0 1 2.754 2.754c.687 1.348.687 3.113.687 6.643v4.832c0 3.53 0 5.295-.687 6.643a6.303 6.303 0 0 1-2.754 2.754C43.96 25 42.196 25 38.666 25h-4.832c-3.53 0-5.295 0-6.643-.687a6.303 6.303 0 0 1-2.754-2.754c-.687-1.348-.687-3.113-.687-6.643v-4.832Z"/><path fill="#000" fill-rule="evenodd" d="M38.666 1.47h-4.832c-1.79 0-3.043.002-4.02.082-.96.078-1.523.225-1.955.445a4.832 4.832 0 0 0-2.112 2.112c-.22.432-.367.995-.445 1.955-.08.977-.081 2.23-.081 4.02v4.832c0 1.79 0 3.043.08 4.02.079.96.226 1.523.446 1.955a4.832 4.832 0 0 0 2.112 2.112c.432.22.995.367 1.955.445.977.08 2.23.081 4.02.081h4.832c1.79 0 3.043 0 4.02-.08.96-.079 1.523-.226 1.955-.446a4.833 4.833 0 0 0 2.112-2.112c.22-.432.367-.995.445-1.955.08-.977.081-2.23.081-4.02v-4.832c0-1.79 0-3.043-.08-4.02-.079-.96-.226-1.523-.446-1.955a4.833 4.833 0 0 0-2.112-2.112c-.432-.22-.995-.367-1.955-.445-.977-.08-2.23-.081-4.02-.081ZM24.437 3.442c-.687 1.348-.687 3.113-.687 6.643v4.832c0 3.53 0 5.295.687 6.643a6.303 6.303 0 0 0 2.754 2.754C28.54 25 30.304 25 33.834 25h4.832c3.53 0 5.295 0 6.643-.687a6.303 6.303 0 0 0 2.754-2.754c.687-1.348.687-3.113.687-6.643v-4.832c0-3.53 0-5.295-.687-6.643A6.303 6.303 0 0 0 45.309.687C43.96 0 42.196 0 38.666 0h-4.832c-3.53 0-5.295 0-6.643.687a6.303 6.303 0 0 0-2.754 2.754Z" clip-rule="evenodd"/><path fill="#000" d="M38.059 22.033c.995 0 1.58-.146 2.079-.32v-2.04c-.527.204-1.113.32-1.874.32-1.23 0-1.903-.728-1.903-2.214V8.631h3.572v-2.04H36.36V3.126h-2.43v3.467h-2.197v2.04h2.196v9.38c0 2.39 1.347 4.02 4.129 4.02Z"/><path fill="#000" fill-rule="evenodd" d="M25 12.5C25 19.404 19.404 25 12.5 25S0 19.404 0 12.5 5.596 0 12.5 0 25 5.596 25 12.5Zm-4.202 3.298c-.697 4.622-3.875 6.891-8.335 6.891-5.771 0-9.312-3.977-9.312-10.14v-.224C3.151 6.387 7.11 2.1 12.518 2.1c4.154 0 7.667 2.213 8.085 6.554h-2.397c-.502-3.053-2.258-4.621-5.66-4.621-4.126 0-6.886 3.22-6.886 8.263v.224c0 5.098 2.565 8.18 6.858 8.18 3.262 0 5.52-1.653 6.022-4.903h2.258Z" clip-rule="evenodd"/></svg>
